icons/archlinux/archlinux-original-wordmark.svg

<?xml version="1.0" encoding="UTF-8" standalone="no"?>
<svg
   width="128px"
   height="128px"
   viewBox="0 0 128 128"
   version="1.1"
   id="svg89"
   sodipodi:docname="archlinux-original-wordmark.svg"
   inkscape:version="1.1.2 (b8e25be8, 2022-02-05)"
   xmlns:inkscape="http://www.inkscape.org/namespaces/inkscape"
   xmlns:sodipodi="http://sodipodi.sourceforge.net/DTD/sodipodi-0.dtd"
   xmlns="http://www.w3.org/2000/svg"
   xmlns:svg="http://www.w3.org/2000/svg">
  <defs
     id="defs93" />
  <sodipodi:namedview
     id="namedview91"
     pagecolor="#ffffff"
     bordercolor="#666666"
     borderopacity="1.0"
     inkscape:pageshadow="2"
     inkscape:pageopacity="0.0"
     inkscape:pagecheckerboard="0"
     showgrid="false"
     inkscape:zoom="7.0078125"
     inkscape:cx="64"
     inkscape:cy="63.928651"
     inkscape:window-width="2560"
     inkscape:window-height="1298"
     inkscape:window-x="0"
     inkscape:window-y="25"
     inkscape:window-maximized="1"
     inkscape:current-layer="svg89" />
  <g
     id="surface1"
     transform="translate(-0.71348941,41.667781)">
    <path
       style="fill:#4c4c4c;fill-opacity:1;fill-rule:evenodd;stroke:none"
       d="m 42.992188,14.339844 c -1.722657,-0.0039 -3.152344,0.347656 -3.703126,0.539062 l -0.570312,3.039063 c 0,0.01172 2.832031,-0.75 4.082031,-0.703125 2.066407,0.07422 2.253907,0.78125 2.21875,1.734375 0.03516,0.05859 -0.53125,-0.863281 -2.320312,-0.890625 -2.253907,-0.03906 -5.4375,0.789062 -5.433594,4.15625 -0.0625,3.789062 2.859375,4.902344 4.851563,4.921875 1.789062,-0.03125 2.625,-0.667969 3.085937,-1.011719 0.601563,-0.621094 1.292969,-1.25 1.953125,-2.003906 -0.625,1.121094 -1.164062,1.894531 -1.726562,2.488281 v 0.5 l 2.71875,-0.453125 0.01953,-7.3125 c -0.02734,-1.035156 0.597656,-4.992188 -5.175781,-5.003906 z m -0.390626,6.367187 c 1.128907,0.01563 2.421876,0.5625 2.421876,1.886719 0.0078,1.203125 -1.523438,1.851562 -2.515626,1.839844 -0.996093,-0.01172 -2.316406,-0.773438 -2.324218,-1.945313 0.01953,-1.050781 1.246094,-1.808593 2.417968,-1.78125 z m 0,0"
       id="path60" />
    <path
       style="fill:#4c4c4c;fill-opacity:1;fill-rule:evenodd;stroke:none"
       d="m 49.960938,15.015625 -0.01953,12.109375 3.167969,-0.605469 0.0039,-6.863281 c 0,-1.023438 1.476563,-2.21875 3.328125,-2.199219 0.394532,-0.703125 1.132813,-2.5 1.3125,-2.910156 -4.136718,-0.0078 -4.1875,1.175781 -4.910156,1.761719 -0.0078,-1.113282 0,-1.78125 0,-1.78125 z m 0,0"
       id="path62" />
    <path
       style="fill:#4c4c4c;fill-opacity:1;fill-rule:evenodd;stroke:none"
       d="m 67.785156,16.605469 c -0.03125,-0.01563 -1.652344,-1.875 -4.910156,-1.890625 -3.054688,-0.05078 -6.480469,1.121094 -6.535156,6.183594 0.02734,4.453124 3.289062,6.195312 6.550781,6.230468 3.488281,0.03516 4.878906,-2.160156 4.960937,-2.214844 C 67.433594,24.558594 65.875,23.03125 65.875,23.03125 c 0,0 -0.972656,1.371094 -2.863281,1.386719 -1.890625,0.01953 -3.53125,-1.445313 -3.554688,-3.484375 -0.02344,-2.042969 1.507813,-3.148438 3.570313,-3.238282 1.78125,0 2.8125,1.140626 2.8125,1.140626 z m 0,0"
       id="path64" />
    <path
       style="fill:#4c4c4c;fill-opacity:1;fill-rule:evenodd;stroke:none"
       d="m 71.777344,10.777344 -2.992188,0.695312 0.02344,15.773438 2.945312,-0.527344 0.03516,-7.421875 c 0.0039,-0.777344 1.136719,-1.972656 3.027344,-1.933594 1.804688,0.01563 2.210938,1.191407 2.203125,1.335938 l 0.05469,8.59375 2.902343,-0.507813 0.01172,-9.109375 c 0.01953,-0.878906 -1.941406,-2.730469 -5.089843,-2.742187 -1.5,0 -2.328126,0.335937 -2.75,0.585937 -0.722657,0.550781 -1.546876,1.078125 -2.359376,1.753907 0.75,-0.953126 1.378907,-1.613282 1.996094,-2.101563 z m 0,0"
       id="path66" />
    <path
       style="fill:#1791cf;fill-opacity:1;fill-rule:evenodd;stroke:none"
       d="m 82.511719,11.1875 1.347656,-0.332031 0.06641,15.898437 -1.371093,0.230469 z m 0,0"
       id="path68" />
    <path
       style="fill:#1791cf;fill-opacity:1;fill-rule:evenodd;stroke:none"
       d="m 86.179688,15.933594 1.183593,-0.519532 0.0078,11.398438 -1.140625,0.234375 z m -0.28125,-4.113282 0.953124,-0.769531 0.792969,0.875 -0.953125,0.789063 z m 0,0"
       id="path70" />
    <path
       style="fill:#1791cf;fill-opacity:1;fill-rule:evenodd;stroke:none"
       d="m 89.585938,15.726562 1.347656,-0.273437 0.0078,2.382813 c 0,0.101562 0.738282,-2.660157 4.3125,-2.601563 3.464844,0.01953 4.035156,2.675781 4.015625,3.273437 l 0.04297,8.378907 -1.183594,0.253906 -0.0078,-8.277344 c 0.01563,-0.242187 -0.539063,-2.285156 -2.988282,-2.292969 -2.453124,-0.0078 -4.148437,1.757813 -4.148437,2.890626 l 0.01953,7.292968 -1.367187,0.351563 z m 0,0"
       id="path72" />
    <path
       style="fill:#1791cf;fill-opacity:1;fill-rule:evenodd;stroke:none"
       d="m 111.08203,26.949219 -1.35156,0.269531 -0.004,-2.382812 c 0,-0.101563 -0.74218,2.664062 -4.3125,2.601562 -3.46875,-0.01953 -4.03515,-2.675781 -4.01562,-3.269531 l -0.043,-8.382813 1.43359,-0.285156 0.0195,8.277344 c 0,0.226562 0.27344,2.320312 2.72657,2.328125 2.44922,0.0039 4.16797,-1.460938 4.17968,-3.667969 l -0.0195,-6.535156 1.33594,-0.335938 z m 0,0"
       id="path74" />
    <path
       style="fill:#1791cf;fill-opacity:1;fill-rule:evenodd;stroke:none"
       d="m 113.72656,15.632812 -0.94922,0.730469 3.62891,4.695313 -3.86719,5.425781 1.00391,0.734375 3.63281,-5.035156 3.75391,5.15625 0.92969,-0.734375 -4.02344,-5.511719 3.20703,-4.460938 -0.98438,-0.824218 -2.92187,4.125 z m 0,0"
       id="path76" />
    <path
       style="fill:#1791cf;fill-opacity:1;fill-rule:evenodd;stroke:none"
       d="M 22.574219,3.507812 C 20.996094,7.335938 20.042969,9.839844 18.285156,13.554688 19.363281,14.683594 20.6875,16 22.832031,17.484375 20.523438,16.542969 18.949219,15.601562 17.773438,14.621094 15.523438,19.265625 12.003906,25.875 4.851562,38.582031 10.472656,35.375 14.828125,33.394531 18.886719,32.640625 18.710938,31.898438 18.613281,31.097656 18.621094,30.261719 l 0.0039,-0.179688 c 0.08984,-3.5625 1.964844,-6.300781 4.183594,-6.113281 2.214844,0.183594 3.941406,3.226562 3.851562,6.785156 -0.01563,0.671875 -0.09375,1.316406 -0.226562,1.914063 4.015625,0.777343 8.324218,2.75 13.867187,5.914062 -1.09375,-1.988281 -2.070312,-3.785156 -3,-5.492187 -1.46875,-1.125 -3,-2.589844 -6.121093,-4.175782 2.144531,0.550782 3.683593,1.1875 4.878906,1.898438 C 26.589844,13.367188 25.820312,11.050781 22.574219,3.507812 Z m 0,0"
       id="path78" />
    <path
       style="fill:#1791cf;fill-opacity:1;fill-rule:nonzero;stroke:none"
       d="m 123.625,26.25 v -0.984375 h -0.37109 v -0.132813 h 0.89062 v 0.132813 h -0.37109 V 26.25 H 123.625"
       id="path80" />
    <path
       style="fill:#1791cf;fill-opacity:1;fill-rule:nonzero;stroke:none"
       d="m 124.30078,26.25 v -1.117188 h 0.22656 l 0.26563,0.789063 c 0.0234,0.07422 0.043,0.128906 0.0547,0.164063 0.0117,-0.03906 0.0312,-0.09766 0.0586,-0.175782 l 0.26953,-0.777344 h 0.20313 V 26.25 h -0.14453 V 25.316406 L 124.90625,26.25 h -0.13672 l -0.32422,-0.953125 V 26.25 h -0.14453"
       id="path82" />
    <path
       style="fill:#1791cf;fill-opacity:1;fill-rule:nonzero;stroke:none"
       d="m 40.476562,35.453125 v -0.960937 h -0.363281 v -0.128907 h 0.871094 v 0.128907 h -0.363281 v 0.960937 h -0.144532"
       id="path84" />
    <path
       style="fill:#1791cf;fill-opacity:1;fill-rule:nonzero;stroke:none"
       d="m 41.136719,35.453125 v -1.089844 h 0.21875 l 0.261719,0.769531 c 0.02344,0.07422 0.04297,0.128907 0.05469,0.164063 0.01172,-0.03906 0.03125,-0.09766 0.05859,-0.175781 l 0.261719,-0.757813 H 42.1875 v 1.089844 h -0.140625 v -0.914063 l -0.320313,0.914063 h -0.128906 l -0.320312,-0.929687 v 0.929687 h -0.140625"
       id="path86" />
  </g>
</svg>

<?xml version="1.0" encoding="UTF-8"?>
<svg xmlns="http://www.w3.org/2000/svg" xmlns:xlink="http://www.w3.org/1999/xlink" width="128px" height="128px" viewBox="0 0 128 42" version="1.1">
<g id="surface1">
<path style=" stroke:none;fill-rule:evenodd;fill:rgb(30.196078%,30.196078%,30.196078%);fill-opacity:1;" d="M 42.992188 14.339844 C 41.269531 14.335938 39.839844 14.6875 39.289062 14.878906 L 38.71875 17.917969 C 38.71875 17.929688 41.550781 17.167969 42.800781 17.214844 C 44.867188 17.289062 45.054688 17.996094 45.019531 18.949219 C 45.054688 19.007812 44.488281 18.085938 42.699219 18.058594 C 40.445312 18.019531 37.261719 18.847656 37.265625 22.214844 C 37.203125 26.003906 40.125 27.117188 42.117188 27.136719 C 43.90625 27.105469 44.742188 26.46875 45.203125 26.125 C 45.804688 25.503906 46.496094 24.875 47.15625 24.121094 C 46.53125 25.242188 45.992188 26.015625 45.429688 26.609375 L 45.429688 27.109375 L 48.148438 26.65625 L 48.167969 19.34375 C 48.140625 18.308594 48.765625 14.351562 42.992188 14.339844 Z M 42.601562 20.707031 C 43.730469 20.722656 45.023438 21.269531 45.023438 22.59375 C 45.03125 23.796875 43.5 24.445312 42.507812 24.433594 C 41.511719 24.421875 40.191406 23.660156 40.183594 22.488281 C 40.203125 21.4375 41.429688 20.679688 42.601562 20.707031 Z M 42.601562 20.707031 "/>
<path style=" stroke:none;fill-rule:evenodd;fill:rgb(30.196078%,30.196078%,30.196078%);fill-opacity:1;" d="M 49.960938 15.015625 L 49.941406 27.125 L 53.109375 26.519531 L 53.113281 19.65625 C 53.113281 18.632812 54.589844 17.4375 56.441406 17.457031 C 56.835938 16.753906 57.574219 14.957031 57.753906 14.546875 C 53.617188 14.539062 53.566406 15.722656 52.84375 16.308594 C 52.835938 15.195312 52.84375 14.527344 52.84375 14.527344 Z M 49.960938 15.015625 "/>
<path style=" stroke:none;fill-rule:evenodd;fill:rgb(30.196078%,30.196078%,30.196078%);fill-opacity:1;" d="M 67.785156 16.605469 C 67.753906 16.589844 66.132812 14.730469 62.875 14.714844 C 59.820312 14.664062 56.394531 15.835938 56.339844 20.898438 C 56.367188 25.351562 59.628906 27.09375 62.890625 27.128906 C 66.378906 27.164062 67.769531 24.96875 67.851562 24.914062 C 67.433594 24.558594 65.875 23.03125 65.875 23.03125 C 65.875 23.03125 64.902344 24.402344 63.011719 24.417969 C 61.121094 24.4375 59.480469 22.972656 59.457031 20.933594 C 59.433594 18.890625 60.964844 17.785156 63.027344 17.695312 C 64.808594 17.695312 65.839844 18.835938 65.839844 18.835938 Z M 67.785156 16.605469 "/>
<path style=" stroke:none;fill-rule:evenodd;fill:rgb(30.196078%,30.196078%,30.196078%);fill-opacity:1;" d="M 71.777344 10.777344 L 68.785156 11.472656 L 68.808594 27.246094 L 71.753906 26.71875 L 71.789062 19.296875 C 71.792969 18.519531 72.925781 17.324219 74.816406 17.363281 C 76.621094 17.378906 77.027344 18.554688 77.019531 18.699219 L 77.074219 27.292969 L 79.976562 26.785156 L 79.988281 17.675781 C 80.007812 16.796875 78.046875 14.945312 74.898438 14.933594 C 73.398438 14.933594 72.570312 15.269531 72.148438 15.519531 C 71.425781 16.070312 70.601562 16.597656 69.789062 17.273438 C 70.539062 16.320312 71.167969 15.660156 71.785156 15.171875 Z M 71.777344 10.777344 "/>
<path style=" stroke:none;fill-rule:evenodd;fill:rgb(9.019608%,57.647059%,81.960784%);fill-opacity:1;" d="M 82.511719 11.1875 L 83.859375 10.855469 L 83.925781 26.753906 L 82.554688 26.984375 Z M 82.511719 11.1875 "/>
<path style=" stroke:none;fill-rule:evenodd;fill:rgb(9.019608%,57.647059%,81.960784%);fill-opacity:1;" d="M 86.179688 15.933594 L 87.363281 15.414062 L 87.371094 26.8125 L 86.230469 27.046875 Z M 85.898438 11.820312 L 86.851562 11.050781 L 87.644531 11.925781 L 86.691406 12.714844 Z M 85.898438 11.820312 "/>
<path style=" stroke:none;fill-rule:evenodd;fill:rgb(9.019608%,57.647059%,81.960784%);fill-opacity:1;" d="M 89.585938 15.726562 L 90.933594 15.453125 L 90.941406 17.835938 C 90.941406 17.9375 91.679688 15.175781 95.253906 15.234375 C 98.71875 15.253906 99.289062 17.910156 99.269531 18.507812 L 99.3125 26.886719 L 98.128906 27.140625 L 98.121094 18.863281 C 98.136719 18.621094 97.582031 16.578125 95.132812 16.570312 C 92.679688 16.5625 90.984375 18.328125 90.984375 19.460938 L 91.003906 26.753906 L 89.636719 27.105469 Z M 89.585938 15.726562 "/>
<path style=" stroke:none;fill-rule:evenodd;fill:rgb(9.019608%,57.647059%,81.960784%);fill-opacity:1;" d="M 111.082031 26.949219 L 109.730469 27.21875 L 109.726562 24.835938 C 109.726562 24.734375 108.984375 27.5 105.414062 27.4375 C 101.945312 27.417969 101.378906 24.761719 101.398438 24.167969 L 101.355469 15.785156 L 102.789062 15.5 L 102.808594 23.777344 C 102.808594 24.003906 103.082031 26.097656 105.535156 26.105469 C 107.984375 26.109375 109.703125 24.644531 109.714844 22.4375 L 109.695312 15.902344 L 111.03125 15.566406 Z M 111.082031 26.949219 "/>
<path style=" stroke:none;fill-rule:evenodd;fill:rgb(9.019608%,57.647059%,81.960784%);fill-opacity:1;" d="M 113.726562 15.632812 L 112.777344 16.363281 L 116.40625 21.058594 L 112.539062 26.484375 L 113.542969 27.21875 L 117.175781 22.183594 L 120.929688 27.339844 L 121.859375 26.605469 L 117.835938 21.09375 L 121.042969 16.632812 L 120.058594 15.808594 L 117.136719 19.933594 Z M 113.726562 15.632812 "/>
<path style=" stroke:none;fill-rule:evenodd;fill:rgb(9.019608%,57.647059%,81.960784%);fill-opacity:1;" d="M 22.574219 3.507812 C 20.996094 7.335938 20.042969 9.839844 18.285156 13.554688 C 19.363281 14.683594 20.6875 16 22.832031 17.484375 C 20.523438 16.542969 18.949219 15.601562 17.773438 14.621094 C 15.523438 19.265625 12.003906 25.875 4.851562 38.582031 C 10.472656 35.375 14.828125 33.394531 18.886719 32.640625 C 18.710938 31.898438 18.613281 31.097656 18.621094 30.261719 L 18.625 30.082031 C 18.714844 26.519531 20.589844 23.78125 22.808594 23.96875 C 25.023438 24.152344 26.75 27.195312 26.660156 30.753906 C 26.644531 31.425781 26.566406 32.070312 26.433594 32.667969 C 30.449219 33.445312 34.757812 35.417969 40.300781 38.582031 C 39.207031 36.59375 38.230469 34.796875 37.300781 33.089844 C 35.832031 31.964844 34.300781 30.5 31.179688 28.914062 C 33.324219 29.464844 34.863281 30.101562 36.058594 30.8125 C 26.589844 13.367188 25.820312 11.050781 22.574219 3.507812 Z M 22.574219 3.507812 "/>
<path style=" stroke:none;fill-rule:nonzero;fill:rgb(9.019608%,57.647059%,81.960784%);fill-opacity:1;" d="M 123.625 26.25 L 123.625 25.265625 L 123.253906 25.265625 L 123.253906 25.132812 L 124.144531 25.132812 L 124.144531 25.265625 L 123.773438 25.265625 L 123.773438 26.25 L 123.625 26.25 "/>
<path style=" stroke:none;fill-rule:nonzero;fill:rgb(9.019608%,57.647059%,81.960784%);fill-opacity:1;" d="M 124.300781 26.25 L 124.300781 25.132812 L 124.527344 25.132812 L 124.792969 25.921875 C 124.816406 25.996094 124.835938 26.050781 124.847656 26.085938 C 124.859375 26.046875 124.878906 25.988281 124.90625 25.910156 L 125.175781 25.132812 L 125.378906 25.132812 L 125.378906 26.25 L 125.234375 26.25 L 125.234375 25.316406 L 124.90625 26.25 L 124.769531 26.25 L 124.445312 25.296875 L 124.445312 26.25 L 124.300781 26.25 "/>
<path style=" stroke:none;fill-rule:nonzero;fill:rgb(9.019608%,57.647059%,81.960784%);fill-opacity:1;" d="M 40.476562 35.453125 L 40.476562 34.492188 L 40.113281 34.492188 L 40.113281 34.363281 L 40.984375 34.363281 L 40.984375 34.492188 L 40.621094 34.492188 L 40.621094 35.453125 L 40.476562 35.453125 "/>
<path style=" stroke:none;fill-rule:nonzero;fill:rgb(9.019608%,57.647059%,81.960784%);fill-opacity:1;" d="M 41.136719 35.453125 L 41.136719 34.363281 L 41.355469 34.363281 L 41.617188 35.132812 C 41.640625 35.207031 41.660156 35.261719 41.671875 35.296875 C 41.683594 35.257812 41.703125 35.199219 41.730469 35.121094 L 41.992188 34.363281 L 42.1875 34.363281 L 42.1875 35.453125 L 42.046875 35.453125 L 42.046875 34.539062 L 41.726562 35.453125 L 41.597656 35.453125 L 41.277344 34.523438 L 41.277344 35.453125 L 41.136719 35.453125 "/>
</g>
</svg>
